!!!!SEGMENT: pl-wnifc--3125-n--001-002_wieniawski-jozef--24-etudes-20me-etude.krn
!!!cenid: 18xx:3846
!!!COM: Wieniawski, Józef
!!!COM-rismID: pe137276
!!!CDT: 1837/05/23-1912/11/11
!!!CNT: Polish
!!!GTL: 24 Études
!!!OTL: 20me Etude
!!!OMV: 002
!!!PDT:
!!!AGN:
!!!SMS-siglum: PL-Wnifc
!!!SMS-shelfmark: 3125/n
!!!SMS-shelfwork: 001-002 G
!!!SMS-variant:
!!!SMS-altvar:
!!!NIFC-rismSourceID: 1001142383
!!!NIFC-rismChildID: 1001142386
!!!NIFC-islandoraID: nifc:212194
!!!URL-pdf-islandora: https://repozytorium.nifc.pl/islandora/object/nifc%3A212194/datastream/PDF/view
!!!URL-scan: https://polish.musicsources.pl/pl/lokalizacje/galeria/druki-muzyczne/16832 @EN{Scan on Polish Music Sources Website} @PL{Skany w portalu Dziedzictwo Muzyki Polskiej w otwartym dostępie}
!!!IIIF:
!!!ONB-nifc: UWAGA: w zbiorze znajdują się Etiudy od nr 19-24 (pliki 001-006).
!!!AIN: 2 piano
!!!key: c
**kern	**fing	**dynam	**kern	**fing	**dynam
*part2	*part2	*part2	*part1	*part1	*part1
*staff2	*	*	*staff1	*	*
*I"Piano	*	*	*	*	*
*Ipiano	*	*	*Ipiano	*	*
*ICklav	*	*	*ICklav	*	*
*clefF4	*	*	*clefG2	*	*
*k[b-e-a-]	*	*	*k[b-e-a-]	*	*
*c:	*	*	*c:	*	*
*M6/8	*	*	*M6/8	*	*
=1	=1	=1	=1	=1	=1
*ped	*below	*	*	*	*
!LO:TX:a:i:t=poco più	!	!	!LO:TX:a:B:t=Andantino contemplativo	!	!
8CC/L	5	.	2.A-TT/	12	p
8AA-/J	2	.	.	.	.
8E-/L	1	.	.	.	.
8AA-/	.	.	.	.	.
8CC/J	.	.	.	.	.
8r	.	.	.	.	.
=2	=2	=2	=2	=2	=2
!	!	!	!LO:TX:a:i:t=(quasi barcarolla).	!	!
8r	.	.	2.e-TT/	35	.
8EE-/L	.	.	.	.	.
8C/J	2	.	.	.	.
8A-/L	.	.	.	.	.
8C/	.	.	.	.	.
8EE-/J	.	.	.	.	.
=3	=3	=3	=3	=3	=3
*	*	*	*	*below	*
8r	.	.	2.a-TT/	12	.
8AA-/L	.	.	.	.	.
8E-/J	3	.	.	.	.
8c\L	.	.	.	.	.
8E-\	.	.	.	.	.
8AA-\J	.	.	.	.	.
=4	=4	=4	=4	=4	=4
*	*above	*	*	*	*
8r	.	.	2.ee-TT\	35	.
8C\L	.	.	.	.	.
8A-\J	2	.	.	.	.
8e-\L	.	.	.	.	.
8A-\	.	.	.	.	.
8C\J	.	.	.	.	.
=5	=5	=5	=5	=5	=5
8r	.	.	4.aa-TT\	12	.
8E-\L	5	.	.	.	.
8c\J	2	.	.	.	.
8a-\L	.	.	4.eee-TT\	35	.
8A-\	5	.	.	.	.
8e-\J	3	.	.	.	.
*clefG2	*below	*	*	*	*
!!LO:LB:g=original
=6	=6	=6	=6	=6	=6
8cc/L	.	.	4.aa-TT\	.	.
8c/	.	.	.	.	.
8a-/J	2	.	.	.	.
8ee-\L	.	.	4.eee-TT\	.	.
8e-\	.	.	.	.	.
8cc\J	.	.	.	.	.
=7	=7	=7	=7	=7	=7
*	*above	*	*	*	*
8aa-\L	.	.	4.aaa-TT\	132	.
8a-\	.	.	.	.	.
8ee-\J	3	.	.	.	.
*	*	*	*	*above	*
8ccc\L	.	.	16ggg\LL	1	.
.	.	.	16aaa-\	.	.
*	*	*	*8va	*	*
8cc\	.	.	16bbb-\	.	.
.	.	.	16bbbn\	1	.
8ee-\J	4	.	24cccc\	.	.
.	.	.	24dddd-X\	.	.
.	.	.	24ddddn\JJ	1	.
=8||	=8||	=8||	=8||	=8||	=8||
*M2/4	*	*	*M2/4	*	*
*Xped	*	*	*	*	*
8eee-\	.	.	32ffff\LLL	5	.
.	.	.	32eeee-\	4	.
.	.	.	32cccc\	3	.
.	.	.	32aaa-\JJ	2	.
*	*	*	*X8va	*	*
8r	.	.	32fff\LLL	1	.
.	.	.	32eee-\	4	.
.	.	.	32ccc\	.	.
.	.	.	32aa-\JJJ	.	.
4r	.	.	32ff\LLL	1	.
.	.	.	32ee-\	4	.
.	.	.	32cc\	.	.
.	.	.	32a-\JJJ	.	.
.	.	.	32f\LL	1	.
*	*below	*	*	*	*
.	1	.	32e-</	.	.
.	2	.	32c</	.	.
.	4	.	32A-</JJJ	.	.
=9||	=9||	=9||	=9||	=9||	=9||
*M6/8	*	*	*M6/8	*below	*
!	!	!	!LO:TX:b:i:t=poco meno	!	!
!	!	!	!LO:TX:a:t=♭	!	!
8r	.	.	2.aa-^<TT\	1324	.
*ped	*	*	*	*	*
8c/L	.	.	.	.	.
8e-/J	.	.	.	.	.
8ee-/L	.	.	.	.	.
8a-/	.	.	.	.	.
8e-/J	.	.	.	.	.
*Xped	*	*	*	*	*
!!LO:LB:g=original
=10	=10	=10	=10	=10	=10
8r	.	.	2.gg^tt\	1324	.
*ped	*	*	*	*	*
8Bn/L	.	.	.	.	.
8d/J	.	.	.	.	.
8dd/L	.	.	.	.	.
8g/	.	.	.	.	.
8d/J	.	.	.	2	.
*Xped	*	*	*	*	*
=11	=11	=11	=11	=11	=11
8r	.	.	2.ff^TT\	1324	.
*ped	*	*	*	*	*
8A-/L	.	.	.	.	.
8c/J	.	.	.	.	.
8cc/L	.	.	.	.	.
8f/	.	.	.	.	.
8c/J	.	.	.	2	.
*Xped	*	*	*	*	*
*clefF4	*	*	*	*	*
=12	=12	=12	=12	=12	=12
8r	.	.	2.cc^TT\	12	.
*ped	*	*	*	*	*
8F\L	.	.	.	.	.
8A-\J	.	.	.	.	.
8a-\L	.	.	.	.	.
8d\	.	.	.	.	.
8c\J	.	.	.	.	.
*Xped	*	*	*	*	*
=13	=13	=13	=13	=13	=13
8r	.	.	2.ee-^TT\	35	.
*ped	*above	*	*	*	*
(8GG\L	.	.	.	.	.
8F\J	.	.	.	.	.
8Bn'\L)	1	.	.	.	.
(8a-\	1	.	.	.	.
8f\J)	2	.	.	.	.
*Xped	*	*	*	*	*
=14	=14	=14	=14	=14	=14
8r	.	.	2.g^>tt/	12	.
*ped	*	*	*	*	*
(8CC/L	.	.	.	.	.
8BB-/J	.	.	.	.	.
8E-'\L)	1	.	.	.	.
(8e-\	1	.	.	.	.
8c\J)	2	.	.	.	.
*Xped	*	*	*	*	*
=15	=15	=15	=15	=15	=15
8r	.	.	4.ee-^TT\	.	.
*ped	*	*	*	*	*
(8GG\L	.	.	.	.	.
8F\J	.	.	.	.	.
8Bn'\L)	.	.	4.ee-^TT\	.	.
(8a-\	.	.	.	.	.
8f\J)	.	.	.	.	.
*Xped	*	*	*	*	*
!!LO:LB:g=original
=16	=16	=16	=16	=16	=16
8r	.	.	4g^>tt/	.	.
*ped	*	*	*	*	*
8C\L	.	.	.	.	.
8G\J	.	.	16f#X/LL	.	.
.	.	.	16g/JJ	.	.
8e-\L	.	.	32a-\LLL	.	.
.	.	.	32an\	.	.
.	.	.	32b-X\	.	.
.	.	.	32bn\	.	.
*Xped	*	*	*	*	*
8c\J	.	.	32cc\	.	.
.	.	.	32cc#X\	.	.
.	.	.	32dd\	.	.
.	.	.	32ee-\	.	.
8r	.	.	32een\	.	.
.	.	.	32ffn\	.	.
.	.	.	32ff#X\	.	.
.	.	.	32gg\JJJ	.	.
*clefG2	*	*	*	*	*
=17	=17	=17	=17	=17	=17
!	!	!	!LO:TX:a:t=♭	!	!
8r	.	.	4.aa-X^TT\	231	.
*ped	*	*	*	*	*
8cn/L	.	.	.	.	.
8e-/J	.	.	.	.	.
!	!	!	!LO:TX:a:t=♮	!	!
8ee-/L	.	.	4.eeen^tt\\	35	.
8a-/	.	.	.	.	.
8e-/J	.	.	.	.	.
*Xped	*	*	*	*	*
=18	=18	=18	=18	=18	=18
8r	.	.	4.ddd^tt\\	23	.
*ped	*	*	*	*	*
8Bn/L	.	.	.	.	.
8f/J	.	.	.	.	.
!	!	!	!LO:TX:a:t=♭	!	!
8dd/L	.	.	4.aa-^TT\	13	.
8g/	.	.	.	.	.
8d/J	.	.	.	.	.
*Xped	*	*	*	*	*
=19	=19	=19	=19	=19	=19
8r	.	.	4.gg^tt\\	12	.
*ped	*	*	*	*	*
8B-X/L	.	.	.	.	.
8en/J	.	.	.	.	.
!	!	!	!LO:TX:a:t=♭	!	!
8dd-X/L	.	.	4.ddd-X^TT\	35	.
8g/	.	.	.	.	.
8e/J	.	.	.	.	.
*Xped	*	*	*	*	*
=20	=20	=20	=20	=20	=20
!	!	!	!LO:TX:a:t=♭	!	!
8r	.	.	2.ccc^TT\	13	.
*ped	*	*	*	*	*
8An/L	.	.	.	.	.
8e-X/J	.	.	.	.	.
8cc/L	.	.	.	.	.
8g-X/	.	.	.	.	.
8e-/J	.	.	.	2	.
*Xped	*	*	*	*	*
!!LO:PB:g=original
=21	=21	=21	=21	=21	=21
!	!	!	!LO:TX:a:t=♮	!	!
8r	.	.	4.ff^<TT\	12	.
*ped	*	*	*	*	*
8A-X/L	.	.	.	.	.
8dn/J	.	.	.	.	.
!	!	!	!LO:TX:a:t=♮	!	!
8cc/L	.	.	4.ccc^<TT\	35	.
8f/	.	.	.	.	.
8d/J	.	.	.	.	.
*Xped	*	*	*	*	*
*clefF4	*	*	*	*	*
=22	=22	=22	=22	=22	=22
8r	.	.	4.ccc^<TT\	.	.
*ped	*	*	*	*	*
8F#X\L	.	.	.	.	.
8c\J	.	.	.	.	.
!	!	!	!LO:TX:a:t=♮	!	!
8a-\L	.	.	4.ee-^<TT\	12	.
8e-\	.	.	.	.	.
8d\J	.	.	.	.	.
*Xped	*	*	*	*	*
=23	=23	=23	=23	=23	=23
*^	*	*	*	*	*
4ryy	8c'\L	4	.	4.aa-^<TT\	35	.
.	(>8GG\	5	.	.	.	.
*ped	*	*	*	*	*	*
8ryy	8Fn\J	.	.	.	.	.
8r	8Bn\)	.	.	4.bn^TT\	12	.
(8a-/L	4f\	.	.	.	.	.
8g/J)	.	.	.	.	.	.
*Xped	*	*	*	*	*	*
*v	*v	*	*	*	*	*
=24	=24	=24	=24	=24	=24
*	*	*	*	*above	*
!	!	!	!LO:TX:b:i:t=rit.-:dur=1w:ext=cd	!	!
8r	.	.	[4.dd^TT\	341313	.
*ped	*	*	*	*	*
(8CC/L	.	.	.	.	.
8GG/J	.	.	.	.	.
8E-'\)	.	.	8dd\L]	2	.
4G\ 4e-	.	.	8bn\	1	.
.	.	.	8cc\J	2	.
*Xped	*	*	*	*	*
=25	=25	=25	=25	=25	=25
*	*	*	*^	*	*
*ped	*below	*	*	*	*	*
8FF/L	.	.	2.ee-TT/	2.a-\	35	.
8C/	3	.	.	.	.	.
8A-/J	1	.	.	.	.	.
*	*above	*	*	*	*	*
8E-\	2	.	.	.	.	.
4c\	1	.	.	.	.	.
*	*	*	*v	*v	*	*
!!LO:LB:g=original
=26	=26	=26	=26	=26	=26
8C\L	.	.	2.gTT/	12	.
*Xped	*	*	*	*	*
8E-\	4	.	.	.	.
8c\J	1	.	.	.	.
8G\	2	.	.	.	.
4e-\	.	.	.	.	.
=27	=27	=27	=27	=27	=27
*	*	*	*^	*	*
*ped	*	*	*	*	*	*
8FF/L	.	.	2.ee-TT/	2.a-\	.	.
8C/	.	.	.	.	.	.
8A-/J	.	.	.	.	.	.
8E-\	.	.	.	.	.	.
4c\	.	.	.	.	.	.
*	*	*	*v	*v	*	*
=28	=28	=28	=28	=28	=28
8C\L	.	.	2.gtt/	.	.
*Xped	*	*	*	*	*
8E-\	.	.	.	.	.
8c\J	.	.	.	.	.
8G\	.	.	.	.	.
4e-\	.	.	.	.	.
=29	=29	=29	=29	=29	=29
*	*	*	*^	*	*
*ped	*	*	*	*	*	*
8FF/L	.	.	2.ee-TT/	2.a-\	.	.
8C/	.	.	.	.	.	.
8A-/J	.	.	.	.	.	.
8E-\	.	.	.	.	.	.
4c\	.	.	.	.	.	.
=30	=30	=30	=30	=30	=30	=30
8FF#X/L	.	.	2.a-TT/	8c\	45	.
*Xped	*	*	*	*	*	*
8C/	.	.	.	2ryy	.	.
8A-/J	.	.	.	.	.	.
8E-\	.	.	.	.	.	.
4c\	.	.	.	.	.	.
.	.	.	.	8r	.	.
!!LO:LB:g=original
=31	=31	=31	=31	=31	=31	=31
*ped	*	*	*	*	*	*
!	!	!	!LO:TX:a:t=♮	!	!	!
8GG\L	.	.	2.e-TT/	2.Bn\	35	.
8Fn\	.	.	.	.	.	.
8A-\J	.	.	.	.	.	.
8F#X\	.	.	.	.	.	.
4G\	.	.	.	.	.	.
*	*	*	*v	*v	*	*
=32	=32	=32	=32	=32	=32
!	!	!	!LO:TX:b:i:t=rit.-:dur=1w:ext=cd	!	!
8CC/L	.	.	2.Gtt/	12	.
*Xped	*	*	*	*	*
8GG/	.	.	.	.	.
8Fn/J	.	.	.	.	.
8D\L	.	.	.	.	.
8F\	.	.	.	.	.
8E-\J	.	.	.	.	.
=33	=33	=33	=33	=33	=33
*	*	*	*^	*	*
*ped	*	*	*	*	*	*
8FF/L	.	.	2ee-TT/	4.a-\	.	.
8C/	.	.	.	.	.	.
8A-/J	.	.	.	.	.	.
8E-\	.	.	.	4.a-\	.	.
4c\	.	.	4ryy	.	.	.
*	*	*	*v	*v	*	*
=34	=34	=34	=34	=34	=34
8C\L	.	.	2.gtt/	.	.
*Xped	*	*	*	*	*
8G\	.	.	.	.	.
8e-\J	.	.	.	.	.
8Bn\	.	.	.	.	.
4c\	.	.	.	.	.
=35	=35	=35	=35	=35	=35
*	*	*	*^	*	*
*ped	*	*	*	*	*	*
8FF/L	.	.	4.ffTT/	2.a-\	35	.
8C/	.	.	.	.	.	.
8A-/J	.	.	.	.	.	.
8E-\	.	.	4.ee-TT/	.	2535	.
4c\	.	.	.	.	.	.
!!LO:LB:g=original
=36	=36	=36	=36	=36	=36	=36
8C\L	.	.	4.a-TT/	8e-\	35	.
*Xped	*	*	*	*	*	*
8G\	.	.	.	2ryy	.	.
8e-\J	.	.	.	.	.	.
8Bn\L	.	.	4.gtt/	.	13	.
8d\	.	.	.	.	.	.
8c\J	.	.	.	8ryy	.	.
=37	=37	=37	=37	=37	=37	=37
*ped	*	*	*	*	*	*
8AA-/L	.	.	[2.ccTT/	4.g\	.	<
8C/	.	.	.	.	.	.
8c/J	.	.	.	.	.	.
8E-\	.	.	.	[4.f\	.	.
4F\	.	.	.	.	.	[[
=38	=38	=38	=38	=38	=38	=38
8AAn/L	.	.	2.ccTT/]	4.f\]	.	.
*Xped	*	*	*	*	*	*
8C/	.	.	.	.	.	.
8c/J	.	.	.	.	.	.
8F\	.	.	.	4.e-\	.	.
4G\	.	.	.	.	.	.
=39	=39	=39	=39	=39	=39	=39
*ped	*	*	*	*	*	*
8BB-\L	.	.	2.a-X/	4.e-TT\	132 5	>
8F\	.	.	.	.	.	.
8c\J	.	.	.	.	.	.
8An\L	.	.	.	4.dtt\	12	.
*Xped	*	*	*	*	*	*
8c\	.	.	.	.	.	.
8B-\J	.	.	.	.	.	]]
=40	=40	=40	=40	=40	=40	=40
*ped	*	*	*	*	*	*
!	!	!	!LO:TX:b:i:t=rit.-:dur=1w:ext=cd	!	!	!
8EE-/L	.	.	[4.a-TT:/	4.e-\	45	.
8BB-/	.	.	.	.	.	.
8E-/J	.	.	.	.	.	.
8B-\	.	.	8a-/L]	4ryy	.	.
*Xped	*	*	*	*	*	*
4e-\	.	.	8g/	.	3	.
.	.	.	8e-/J	8ryy	2	.
*	*	*	*v	*v	*	*
!!LO:LB:g=original
=41||	=41||	=41||	=41||	=41||	=41||
*M2/4	*	*	*M2/4	*	*
*	*	*	*^	*	*
*ped	*	*	*	*	*	*
!	!	!	!LO:TX:a:B:t=L'istesso tempo.	!	!	!
32AA-\LLL	.	.	4a-/ 4cc-X	2c-X\	.	.
32D\	.	.	.	.	.	.
32E-\	.	.	.	.	.	.
32F\JJ	.	.	.	.	.	.
[8E-TT\J	.	.	.	.	.	.
4E-\]	.	.	[4a-/	.	32	.
=42	=42	=42	=42	=42	=42	=42
!LO:TUP:a:problem:klamra łukowa i cyfra	!	!	!	!	!	!
.	.	.	8qB-\	.	.	.
24EE-/LL	.	.	4a-\]	4.ee-/	.	.
24E-/	.	.	.	.	.	.
*Xped	*	*	*	*	*	*
24F/JJ	.	.	.	.	.	.
4.E-TT\	.	.	.	.	.	.
.	.	.	8g\L	.	2	.
.	.	.	8e-\J	8e-/	.	.
=43	=43	=43	=43	=43	=43	=43
*ped	*	*	*	*	*	*
32AA-\LLL	.	.	4cc-X/	8c-X\	.	.
32D\	.	.	.	.	.	.
32E-\	.	.	.	.	.	.
32F\JJJ	.	.	.	.	.	.
4.E-TT\	.	.	.	[4.a-\	3	.
.	.	.	8dd-X/L	.	.	.
.	.	.	8cc-/J	.	.	.
=44	=44	=44	=44	=44	=44	=44
!LO:TUP:a:problem:klamra łukowa i cyfra	!	!	!	!	!	!
.	.	.	.	8qqB-\	.	.
24EE-/LL	.	.	4.ee-/	8a-\L]	.	.
24E-/	.	.	.	.	.	.
24F/JJ	.	.	.	.	.	.
*Xped	*	*	*	*	*	*
4.E-TT\	.	.	.	8g\J	2	.
!	!	!	!	!LO:TUP:b:problem:klamra łukowa i cyfra	!	!
.	.	.	.	12f#X\L	1	.
.	.	.	.	12g\	.	.
!	!	!	!LO:N:vis=12	!	!	!
.	.	.	8e-\	.	.	.
.	.	.	.	12e-\J	.	.
!!LO:PB:g=original
=45	=45	=45	=45	=45	=45	=45
*	*	*	*	*^	*	*
*ped	*	*	*	*	*	*	*
32AA-\LLL	.	.	4.cc-X/	8b-\L	2c-X\	.	.
32Dn\	.	.	.	.	.	.	.
32E-\	.	.	.	.	.	.	.
32F-X\JJJ	.	.	.	.	.	.	.
*Xped	*	*	*	*	*	*	*
4.E-tt\	.	.	.	8a-\J	.	.	.
!	!	!	!	!	!	!	!LO:HP:a
.	.	.	.	8e-\L	.	2	<
.	.	.	8a-/	8a-\J	.	3	.
*	*	*	*v	*v	*v	*	*
=46	=46	=46	=46	=46	=46
*	*	*	*	*below	*
.	.	.	32qqc-X/LLL	1	.
.	.	.	32qqc-/	1	.
.	.	.	32qqe-/	2	.
!LO:TUP:b:problem:klamra łukowa i cyfra	!	!	!	!	!
.	.	.	32qqg-X/JJJ	3	[
*ped	*	*	*	*	*
24GG-X\LL	.	.	4ee-^\	.	.
24G-X\	.	.	.	.	.
24A-\JJ	.	.	.	.	.
[4.G-TT\	.	.	.	.	.
!	!	!	!	!	!LO:HP:a
.	.	.	8e-/L 8cc-X	.	>
.	.	.	8c-/J 8e- 8a-	.	.
=47	=47	=47	=47	=47	=47
*	*	*	*^	*	*
!	!	!	!LO:TX:b:i:t=rit.-:dur=2w:ext=cd	!	!	!
*Xped	*	*	*	*	*	*
2G-XTT\]	.	.	4f-X/ 4g-X	8c-X\L	.	.
.	.	.	.	8B-\J	.	.
.	.	.	8f-'/L 8dd-X	4r	.	.
.	.	.	16r	.	.	.
.	.	.	16B-/Jk 16f- 16g-	.	.	]]
=48	=48	=48	=48	=48	=48	=48
*	*	*	*	*^	*	*
*	*	*	*	*	*	*above	*
!	!	!	!	!	!	!	!LO:DY:a
32C-X\LLL	.	.	2g-X/	8f-X\L	4c-X\	.	p
32Fn\	.	.	.	.	.	.	.
32G-X\	.	.	.	.	.	.	.
32A-\JJJ	.	.	.	.	.	.	.
4.G-TT\	.	.	.	8e-\J	.	.	.
.	.	.	.	8dn\L	4ryy	1	.
.	.	.	.	8e-\J	.	2	.
*	*	*	*	*v	*v	*	*
!!LO:LB:g=original
=49	=49	=49	=49	=49	=49	=49
*ped	*	*	*	*	*	*
32AA-\LLL	.	.	4a-/ 4cc-X	2c-X\	.	pf
32D\	1	.	.	.	.	.
32E-\	.	.	.	.	.	.
32Fn\JJJ	.	.	.	.	.	.
4.E-TT\	.	.	.	.	.	.
.	.	.	[<4a-/	.	.	.
=50	=50	=50	=50	=50	=50	=50
!LO:TUP:a:problem:klamra łukowa i cyfra	!	!	!	!	!	!
.	.	.	.	8qB-\	.	.
24EE-/LL	.	.	4.ee-/	8a-\L]	.	.
24E-/	.	.	.	.	.	.
24F/JJ	.	.	.	.	.	.
*Xped	*	*	*	*	*	*
4.E-TT\	.	.	.	8gn\J	.	.
.	.	.	.	8b-\L	.	.
.	.	.	8e-/	8e-\J	.	.
=51	=51	=51	=51	=51	=51	=51
*ped	*	*	*	*	*	*
32AA-\LLL	.	.	4cc-X/	8c-X\	.	<
32D\	.	.	.	.	.	.
32E-\	.	.	.	.	.	.
32F\JJJ	.	.	.	.	.	.
4.E-TT\	.	.	.	4.a-\	.	.
.	.	.	8dd-X/L	.	.	.
.	.	.	8ddn/J	.	.	[[
=52	=52	=52	=52	=52	=52	=52
!	!	!	!	!LO:TUP:a:problem:klamra łukowa i cyfra	!	!
!LO:TUP:a:problem:klamra łukowa i cyfra	!	!	!	!	!	!
24EE-/LL	.	.	8r	12B-\L	.	.
24E-/	.	.	.	.	.	.
24F/JJ	.	.	.	12ee-\	5	.
*Xped	*	*	*	*	*	*
4.E-TT\	.	.	4ee-/	.	.	.
.	.	.	.	12g\J	1	.
!	!	!	!	!LO:TUP:a:problem:klamra łukowa i cyfra	!	!
.	.	.	.	12bb-\L	5	>
.	.	.	.	12gg\	4	.
.	.	.	8r	.	.	.
.	.	.	.	12dd-X\J	2	]]
!!LO:LB:g=original
=53	=53	=53	=53	=53	=53	=53
*	*	*	*	*^	*	*
*ped	*	*	*	*	*	*	*
32AA-\LLL	.	.	4.cc-X/	8b-\L	2c-X\	.	.
32Dn\	.	.	.	.	.	.	.
32E-\	.	.	.	.	.	.	.
32F-X\JJJ	.	.	.	.	.	.	.
4.E-tt\	.	.	.	8a-\J	.	.	.
.	.	.	.	4e-\	.	.	.
.	.	.	8cc-/	.	.	.	.
*Xped	*	*	*	*	*	*	*
*	*	*	*v	*v	*v	*	*
=54	=54	=54	=54	=54	=54
*	*	*	*	*below	*
.	.	.	32qqBn/LLL	1	pp
.	.	.	32qqB/	1	.
.	.	.	32qqg/JJJ	2	.
32GG\LLL	.	.	8ddn\L	.	.
32C#X\	.	.	.	.	.
32D\	.	.	.	.	.
32En\JJJ	.	.	.	.	.
*	*	*	*	*above	*
4.DTT\	.	.	8bn\J	3	.
.	.	.	12cc-X\L	.	.
.	.	.	12cc#X\	.	.
.	.	.	12dd\J	5	.
=55	=55	=55	=55	=55	=55
*	*	*	*	*below	*
.	.	.	32qqA#X/LLL	1	.
.	.	.	32qqA#/	1	.
!	!	!	!LO:TUP:b:problem:klamra łukowa i cyfra	!	!
!	!	!	!LO:TX:b:i:t=rit.-:dur=2w:ext=cd	!	!
.	.	.	32qqf#X/JJJ	2	.
*ped	*	*	*	*	*
!LO:TUP:b:problem:klamra łukowa i cyfra	!	!	!	!	!
24DD/LL	.	.	4ff#X^\	.	.
24D/	.	.	.	.	.
24En/JJ	.	.	.	.	.
4.DTT\	.	.	.	.	.
.	.	.	(12een\L	.	.
.	.	.	12dd'\)	.	.
.	.	.	24r	.	.
*	*	*	*	*above	*
.	.	.	24d\Jk	2	.
=56	=56	=56	=56	=56	=56
*	*	*	*^	*	*
32GG\LLL	.	.	8c/ 8cc	4g\	1 3 5	.
32C#X\	.	.	.	.	.	.
32D\	.	.	.	.	.	.
32En\JJJ	.	.	.	.	.	.
*Xped	*	*	*	*	*	*
4.DTT\	.	.	4.Bn/ 4.bn	.	.	.
.	.	.	.	8f#X\L	.	.
.	.	.	.	8fn\J	.	.
*	*	*	*v	*v	*	*
!!LO:LB:g=original
=57||	=57||	=57||	=57||	=57||	=57||
*M6/8	*	*	*M6/8	*	*
*ped	*	*	*	*	*
!	!	!	!LO:TX:a:i:t=a tempo	!	!
4CCCn/ 4CCn	.	.	8c/ 8e-X 8cc	.	sf
.	.	.	[4A-XTT/	12	p
8AA-/	2	.	.	.	.
8E-X/L	1	p	4.A-/TT]	.	.
8AA-/	.	.	.	.	.
8CC/J	.	.	.	.	.
=58	=58	=58	=58	=58	=58
8r	.	.	2.e-TT/	35	.
8EE-/L	.	.	.	.	.
8C/J	.	.	.	.	.
8A-/L	.	.	.	.	.
8C/	.	.	.	.	.
8EE-/J	.	.	.	.	.
=59	=59	=59	=59	=59	=59
8r	.	.	2.a-TT/	12	.
8AA-/L	.	.	.	.	.
*	*below	*	*	*	*
8E-/J	3	.	.	.	.
8c\L	.	.	.	.	.
8E-\	.	.	.	.	.
8AA-\J	.	.	.	.	.
=60	=60	=60	=60	=60	=60
8r	.	.	2.ee-TT\	35	.
8C\L	.	.	.	.	.
*	*above	*	*	*	*
8A-\J	2	.	.	.	.
8e-\L	.	.	.	.	.
8A-\	.	.	.	.	.
8C\J	.	.	.	.	.
!!LO:LB:g=original
=61	=61	=61	=61	=61	=61
*	*	*	*	*below	*
8r	.	.	4.aa-TT\	12	.
8E-\L	5	.	.	.	.
8c\J	2	.	.	.	.
8a-\L	.	.	4.eee-TT\	35	.
8A-\	5	.	.	.	.
8e-\J	3	.	.	.	.
*clefG2	*	*	*	*	*
=62	=62	=62	=62	=62	=62
8cc/L	.	.	4.aa-TT\	.	.
8c/	.	.	.	.	.
8a-/J	.	.	.	.	.
8ee-\L	.	.	4.eee-TT\	.	.
8e-\	.	.	.	.	.
8cc\J	.	.	.	.	.
=63	=63	=63	=63	=63	=63
*	*	*	*	*above	*
8aa-\L	.	.	4.aaa-TT\	132	.
8a-\	.	.	.	.	.
8ee-\J	3	.	.	.	.
8ccc\L	.	.	16ggg\LL	1	.
.	.	.	16aaa-\	.	.
*	*	*	*8va	*	*
8cc\	.	.	16bbb-\	.	.
.	.	.	16bbbn\	1	.
8ee-\J	4	.	24cccc\	.	.
.	.	.	24dddd-X\	.	.
.	.	.	24ddddn\JJ	1	.
=64||	=64||	=64||	=64||	=64||	=64||
*M2/4	*	*	*M2/4	*	*
*Xped	*	*	*	*	*
8eee-\	.	.	32ffff\LLL	.	.
.	.	.	32eeee-\	.	.
.	.	.	32cccc\	.	.
.	.	.	32aaa-\JJ	.	.
*	*	*	*X8va	*	*
8r	.	.	32fff\LL	.	.
.	.	.	32eee-\	.	.
.	.	.	32ccc\	.	.
.	.	.	32aa-\JJ	.	.
4r	.	.	32ff\LL	.	.
.	.	.	32ee-\	.	.
.	.	.	32cc\	.	.
.	.	.	32a-\JJ	.	.
.	.	.	32f\LL	.	.
.	.	.	32e-</	.	.
.	.	.	32c</	.	.
.	.	.	32A-</JJJ	.	.
*clefF4	*	*	*	*	*
!!LO:PB:g=original
=65	=65	=65	=65	=65	=65
!	!	!	!LO:TX:b:i:t=Cantando	!	!LO:DY:a
16r	.	.	32aa-^\LLL	.	pf
!	!	!	!LO:TX:a:B:t=Poco meno	!	!
.	.	.	32aaa-\JJ	.	.
*ped	*	*	*	*	*
16C\LL	.	p	[8.aa-TT\J	1324	.
16c\	1	.	.	.	.
16e-\JJ	4	.	.	.	.
*clefG2	*	*	*	*	*
!LO:TUP:a:problem:klamra łukowa i cyfra	!	!	!LO:TX:a:i:t=(rubato).	!	!
12ee-/L	.	.	4aa-\]	.	.
12a-/	.	.	.	.	.
12e-/J	.	.	.	.	.
*Xped	*	*	*	*	*
=66	=66	=66	=66	=66	=66
16r	.	.	32gg^\LLL	.	.
.	.	.	32ggg\JJ	.	.
*clefF4	*	*	*	*	*
*ped	*	*	*	*	*
16BBn\LL	.	.	[8.ggtt\J	1324	.
16Bn\	1	.	.	.	.
16d\JJ	.	.	.	.	.
*clefG2	*	*	*	*	*
!LO:TUP:a:problem:klamra łukowa i cyfra	!	!	!	!	!
12dd/L	.	.	4gg\]	.	.
12g/	.	.	.	.	.
12e-/J	.	.	.	.	.
*Xped	*	*	*	*	*
=67	=67	=67	=67	=67	=67
16r	.	.	32ff^\LLL	.	.
.	.	.	32fff\JJ	.	.
*clefF4	*	*	*	*	*
*ped	*	*	*	*	*
16AA-\LL	.	.	8.ffTT\J	1324	.
16A-\	1	.	.	.	.
16c\JJ	5	.	.	.	.
*clefG2	*	*	*	*	*
!LO:TUP:a:problem:klamra łukowa i cyfra	!	!	!	!	!
12cc/L	.	.	4ff\	.	.
12f/	.	.	.	.	.
12c/J	.	.	.	.	.
=68	=68	=68	=68	=68	=68
16r	.	.	32cc^\LLL	.	.
.	.	.	32ccc\JJ	.	.
*clefF4	*	*	*	*	*
16FF\LL	.	.	[8.ccTT\J	.	.
16F\	.	.	.	.	.
*Xped	*	*	*	*	*
16A-\JJ	.	.	.	.	.
!LO:TUP:a:problem:klamra łukowa i cyfra	!	!	!	!	!
12a-\L	.	.	4cc\]	.	.
12e-\	.	.	.	.	.
12d\J	.	.	.	.	.
!!LO:LB:g=original
=69||	=69||	=69||	=69||	=69||	=69||
*M6/8	*	*	*M6/8	*	*
8c\L	4	.	16ee-^\LL	.	.
.	.	.	16eee-\JJ	.	.
*ped	*	*	*	*	*
(8GG\	5	.	[4ee-TT\	12	.
8F\J	.	.	.	.	.
8Bn'\L)	1	.	4.ee-TT\]	.	.
(8a-\	1	.	.	.	.
8f\J)	2	.	.	.	.
*Xped	*	*	*	*	*
=70	=70	=70	=70	=70	=70
8r	.	.	16g^\LL	.	.
.	.	.	16gg\JJ	.	.
*ped	*	*	*	*	*
(8CC/L	.	.	[4gtt/	.	.
8GG/J	.	.	.	.	.
8E-'\L)	1	.	4.gtt/]	.	.
(8e-\	1	.	.	.	.
8c\J)	2	.	.	.	.
*Xped	*	*	*	*	*
=71	=71	=71	=71	=71	=71
*^	*	*	*	*	*
*	*	*^	*	*	*	*
8r	2ryy	.	.	.	16ee-^\LL	.	.
.	.	.	.	.	16eee-\JJ	.	.
*ped	*	*	*	*	*	*	*
(8GG\L	.	.	.	.	4ee-TT\	.	.
8F\J	.	.	.	.	.	.	.
8Bn'\)	.	1	.	.	16ee-^\LL	.	.
.	.	.	.	.	16eee-\JJ	.	.
*clefG2	*	*	*	*	*	*	*
(8b-X/L	4f\	1	3	.	4ee-TT\	.	.
8a-/J)	.	2	.	.	.	.	.
*v	*v	*	*	*	*	*	*
*	*v	*v	*	*	*	*
=72	=72	=72	=72	=72	=72
*Xped	*	*	*	*	*
8r	.	.	16g^\LL	.	.
.	.	.	16gg\J	.	.
*clefF4	*	*	*	*	*
8C\L	.	.	8gtt\	.	.
*	*	*	*Xtuplet	*	*
8G\J	.	.	24f#X\L	.	.
.	.	.	24g\	.	.
.	.	.	24a-\JJ	.	.
8fn\L	.	.	24an\LL	.	.
.	.	.	24b-\	.	.
.	.	.	24bn\	.	.
8e-\	.	.	32cc\L	.	.
.	.	.	32cc#X\	.	.
.	.	.	32dd\	.	.
.	.	.	32ee-\	.	.
8d\J	.	.	32een\	1	.
.	.	.	32ffn\	2	.
.	.	.	32ff#X\	3	.
.	.	.	32gg\JJJ	4	.
!!LO:LB:g=original
=73	=73	=73	=73	=73	=73
*	*	*	*^	*	*
*ped	*	*	*	*	*	*
!LO:TUP:b:problem:klamra łukowa i cyfra	!	!	!LO:TX:a:i:t=a tempo	!	!	!
24Bn\LL	5	.	4.aa-X^/	8aa-\L	.	f
24c\	2	.	.	.	.	.
24d\JJ	1	.	.	.	.	.
[4cTT\	.	.	.	8a-\	.	.
.	.	.	.	8ee-X\J	.	.
4.cTT\]	.	.	4.eee-^/	8eee-\L	.	.
.	.	.	.	8aa-\	.	.
.	.	.	.	8ee-\J	.	.
=74	=74	=74	=74	=74	=74	=74
*Xped	*below	*	*	*	*	*
2.Bntt\	413	.	8ddd^/	8ddd\L	.	.
.	.	.	4ryy	8a-\	.	.
.	.	.	.	8dd\J	.	.
.	.	.	4.aa-^/	8aa-\L	.	.
.	.	.	.	8dd\	.	.
.	.	.	.	8a-\J	.	.
=75	=75	=75	=75	=75	=75	=75
*ped	*	*	*	*	*	*
2.B-XTT\	413	.	4.gg^/	8gg\L	.	.
.	.	.	.	8g\	.	.
.	.	.	.	8dd-X\J	.	.
.	.	.	4.ddd-X^/	8ddd-\L	.	.
.	.	.	.	8een\	.	.
.	.	.	.	8dd-\J	.	.
=76	=76	=76	=76	=76	=76	=76
*Xped	*	*	*	*	*	*
2.Antt\	423	.	8ccc^/	8ccc\L	.	.
.	.	.	2ryy	8g-X\	.	.
.	.	.	.	8cc\J	.	.
.	.	.	.	8gg-X\L	5	.
.	.	.	.	8ee-X\	.	.
.	.	.	8ryy	8cc\J	.	.
=77	=77	=77	=77	=77	=77	=77
*ped	*above	*	*	*	*below	*
!	!	!	!LO:TX:b:t=♭	!	!	!
8r	.	.	2.ccc/	2.gg-XTT\	23	.
8AA-X\L	.	.	.	.	.	.
8E-\J	3	.	.	.	.	.
8c\L	1	.	.	.	.	.
8A-\	2	.	.	.	.	.
8a-\J	1	.	.	.	.	.
!!LO:LB:g=original
=78	=78	=78	=78	=78	=78	=78
!	!	!	!LO:TX:b:t=♭	!	!	!
8r	.	.	2.ddd-X/	2.ffTT\	12	.
*Xped	*	*	*	*	*	*
(8AA-\L	.	.	.	.	.	.
8F\J	.	.	.	.	.	.
8d-X\L)	1	.	.	.	.	.
(8a-\	1	.	.	.	.	.
8A-\J)	.	.	.	.	.	.
=79	=79	=79	=79	=79	=79	=79
8r	.	.	2.bb-/	2.ee-TT\	.	.
*ped	*	*	*	*	*	*
8AA-/L	.	.	.	.	.	.
8BB-/J	.	.	.	.	.	.
8G-X\L	1	.	.	.	.	.
8E-\	2	.	.	.	.	.
8B-\J	1	.	.	.	.	.
=80	=80	=80	=80	=80	=80	=80
8r	.	.	2.gg-X/	2.b-TT\	.	.
*Xped	*	*	*	*	*	*
8E-\L	5	.	.	.	.	.
8G-X\J	.	.	.	.	.	.
8B-\L	3	.	.	.	.	.
8g-X\	1	.	.	.	.	.
8d-X\J	2	.	.	.	.	.
=81	=81	=81	=81	=81	=81	=81
*	*	*	*	*	*above	*
!	!	!	!LO:TX:b:i:t=dim.	!	!	!
!	!	!	!LO:TX:a:t=♭	!	!	!
8r	.	.	2.ffTT/	2.g-X\	34	.
*ped	*	*	*	*	*	*
8AA-\L	.	.	.	.	.	.
8G-X\J	.	.	.	.	.	.
8c\	1	.	.	.	.	.
4a-\	2	.	.	.	.	.
=82	=82	=82	=82	=82	=82	=82
8r	.	.	2.a-TT/	8f\	1 2313	.
8DD-X/L	.	.	.	2ryy	.	.
*Xped	*	*	*	*	*	*
8AA-/J	.	.	.	.	.	.
8F\	.	.	.	.	.	.
4d-X\	.	.	.	.	.	.
.	.	.	.	8ryy	.	.
!!LO:LB:g=original
=83	=83	=83	=83	=83	=83	=83
8r	.	.	4.ffTT/	4.g-X\	.	.
*ped	*	*	*	*	*	*
8AA-\L	.	.	.	.	.	.
8G-X\J	.	.	.	.	.	.
8c\	.	.	4.ffTT/	4.g-\	.	.
4a-\	.	.	.	.	.	.
=84	=84	=84	=84	=84	=84	=84
8r	.	.	[4.a-TT/	8f\	.	.
*Xped	*	*	*	*	*	*
8D-X\L	.	.	.	2r	.	.
8A-\J	.	.	.	.	.	.
8e-\L	.	.	4a-/]	.	.	.
8d-X\J	.	.	.	.	.	.
8r	.	.	48gn/LLL	8r	.	.
.	.	.	48a-/	.	.	.
.	.	.	48an/	.	.	.
.	.	.	48b-/	.	.	.
.	.	.	48bn/	.	.	.
.	.	.	48cc/JJJ	.	.	.
=85	=85	=85	=85	=85	=85	=85
*ped	*	*	*	*	*	*
!LO:TUP:b:problem:klamra łukowa i cyfra	!	!	!	!	!	!
24En\LL	4	.	4.dd-X^/	8dd-\L	.	.
24F\	3	.	.	.	.	.
24G-X\JJ	2	.	.	.	.	.
[4FTT\	.	.	.	8d-X\	.	.
.	.	.	.	8a-\J	.	.
4.F\]	.	.	4.aa-^/	8aa-\L	.	.
.	.	.	.	8dd-\	.	.
.	.	.	.	8a-\J	.	.
*	*below	*	*	*	*	*
32qqE/LLL	4	.	.	.	.	.
32qqF/JJJ	3	.	.	.	.	.
=86	=86	=86	=86	=86	=86	=86
*Xped	*	*	*	*	*	*
!LO:TX:a:t=♮	!	!	!	!	!	!
2.F#Xtt\	213	.	4.cc^/	8cc\L	5	.
.	.	.	.	8c\	.	.
.	.	.	.	8a-\J	.	.
.	.	.	4.aa-^/	8aa-\L	.	.
.	.	.	.	8cc\	.	.
.	.	.	.	8a-\J	.	.
32qqE#X/LLL	4	.	.	.	.	.
32qqF#/JJJ	3	.	.	.	.	.
!!LO:PB:g=original
=87	=87	=87	=87	=87	=87	=87
*ped	*	*	*	*	*	*
2.Gtt\	21	.	8aa-'^/	12aa-\L	.	.
.	.	.	.	12dn\	.	.
.	.	.	8r	.	.	.
.	.	.	.	12fn\J	.	.
!	!	!	!	!LO:TUP:b:problem:klamra łukowa i cyfra	!	!
.	.	.	4.bn^/	8a-\L	4 5	.
.	.	.	.	8g\	.	.
.	.	.	.	8f#X\	.	.
.	.	.	8r	8fn\J	.	.
=88	=88	=88	=88	=88	=88	=88
!	!	!	!LO:TX:b:i:t=rit.-:dur=1w:ext=cd	!	!	!
32C\LLL	.	.	4.dd/	8dd\L	5	.
*Xped	*above	*	*	*	*	*
32F#X\	3	.	.	.	.	.
32G\	2	.	.	.	.	.
32A-\JJJ	1	.	.	.	.	.
4Gtt\	.	.	.	8e-\	.	.
.	.	.	.	8g\J	.	.
16F#\LL	3	.	4ryy	8dd\L	5	.
16G\	2	.	.	.	.	.
16A-\	1	.	.	8bn\	3	.
16G\	2	.	.	.	.	.
16E-\	4	.	8ryy	8cc\J	4	.
16C\JJ	5	.	.	.	.	.
=89	=89	=89	=89	=89	=89	=89
*	*	*	*	*	*^	*
*ped	*below	*	*	*	*	*	*
!	!	!	!LO:TX:b:i:t=dim.	!	!	!	!
8FFn/L	.	.	2.ee-TT/	2.a-\	35	1	.
8C/	3	.	.	.	.	.	.
8A-/J	1	.	.	.	.	.	.
8E-\	2	.	.	.	.	.	.
4c\	.	.	.	.	.	.	.
*	*	*	*	*	*v	*v	*
*	*	*	*v	*v	*	*
=90	=90	=90	=90	=90	=90
8C\L	.	.	2.gtt/	12	.
*Xped	*above	*	*	*	*
8E-\	4	.	.	.	.
8c\J	1	.	.	.	.
8G\	2	.	.	.	.
4e-\	.	.	.	.	.
=91	=91	=91	=91	=91	=91
*	*	*	*^	*	*
*ped	*	*	*	*	*	*
8FF/L	.	.	2.ee-TT/	2.a-\	.	.
8C/	.	.	.	.	.	.
8A-/J	.	.	.	.	.	.
8E-\	.	.	.	.	.	.
4c\	.	.	.	.	.	.
*	*	*	*v	*v	*	*
!!LO:LB:g=original
=92	=92	=92	=92	=92	=92
8C\L	.	.	2.gtt/	.	.
*Xped	*	*	*	*	*
8E-\	.	.	.	.	.
8c\J	.	.	.	.	.
8G\	.	.	.	.	.
4e-\	.	.	.	.	.
=93	=93	=93	=93	=93	=93
*ped	*	*	*8va	*	*
*	*	*	*tuplet	*	*
!	!	!	!LO:TX:b:i:t=cresc.	!	!
!	!	!	!LO:TUP:b:problem:klamra łukowa i cyfra	!	!
!	!	!	!LO:TX:a:B:t=Poco piu.	!	!
8FF/L	.	.	24eee-\LL 24eeee-	5	.
.	.	.	24aaa-\	2	.
.	.	.	24bbb-\JJ	3	.
8C/	.	.	4aaa-TT\	.	.
8A-/J	.	.	.	.	.
*	*	*	*X8va	*	*
!	!	!	!LO:TUP:b:problem:klamra łukowa i cyfra	!	!
8E-\	.	.	24aa-\LL 24aaa-	.	.
.	.	.	24eee-\	2	.
.	.	.	24fff\JJ	3	.
[4c\	.	.	4eee-TT\	.	.
=94	=94	=94	=94	=94	=94
*	*	*	*Xtuplet	*	*
8c\L]	.	.	24ee-\LL 24eee-	.	.
.	.	.	24aa-\	.	.
.	.	.	24bb-\JJ	.	.
8C\	5	.	4aa-TT\	.	.
8A-\J	.	.	.	.	.
8E-\	.	.	24a-\LL 24aa-	.	.
.	.	.	24ee-\	.	.
.	.	.	24ff\JJ	.	.
4c\	.	.	4ee-TT\	.	.
=95	=95	=95	=95	=95	=95
8FF/L	.	.	24e-/LL 24ee-	.	.
.	.	.	24a-/	.	.
.	.	.	24b-/JJ	.	.
8C-X/	.	.	4a-TT/	.	.
8A-/J	.	.	.	.	.
8E-\	.	.	24A-/LL 24a-	.	.
.	.	.	24e-/	.	.
.	.	.	24f/JJ	.	.
[4c-X\	.	.	4e-TT/	.	.
!!LO:LB:g=original
=96	=96	=96	=96	=96	=96
8c-\L]	.	.	24e-/LL	4	.
.	.	.	24A-/	1	.
.	.	.	24B-/JJ	.	.
*Xped	*	*	*	*	*
8C-X\	.	.	4A-TT/	.	.
8E-\J	.	.	.	.	.
*	*	*	*clefF4	*	*
4.C-/	.	.	24A-\LL	4	.
.	.	.	24E-\	1	.
.	.	.	24F\JJ	.	.
.	.	.	4E-TT\	.	.
=97	=97	=97	=97	=97	=97
*	*	*	*^	*	*
*ped	*	*	*	*	*	*
16BBB-/LL 16FF 16BB-	1	.	4.A-/	2.Dn\ 2.A-	2	f <
16C-X/JJ	1	.	.	.	.	.
[4BB-tt</	21	.	.	.	.	.
4.BB-/]	.	.	4.dn/	.	53	.
=98	=98	=98	=98	=98	=98	=98
*^	*	*	*	*	*	*
*Xped	*	*	*	*	*	*	*
!LO:TX:a:t=♮	!	!	!	!	!	!	!
2.BB-TT/	16EE-\	21	.	4.d-X/	2.G\ 2.d-	2	.
.	2ryy	.	.	.	.	.	.
.	.	.	.	4.g/	.	.	.
.	8.ryy	.	.	.	.	.	[
*v	*v	*	*	*	*	*	*
*	*	*	*clefG2	*	*	*
=99	=99	=99	=99	=99	=99	=99
*ped	*	*	*	*	*	*
16AAA-/LL 16EE- 16AA-	1	.	4.g-X/	2.c\ 2.g-	2	>
16BB-/JJ	1	.	.	.	.	.
[4AA-/	21	.	.	.	.	.
4.AA-TT</]	.	.	4.cc/	.	53	.
=100	=100	=100	=100	=100	=100	=100
*^	*	*	*	*	*	*
!LO:TX:a:t=♭	!	!	!	!	!	!	!
[4.AA-TT/	16DD-X\	21	.	4.bn/	2.f\ 2.b	.	.
.	2ryy	.	.	.	.	.	.
*Xped	*	*below	*	*	*	*	*
8AA-/L]	.	.	.	4.ff/	.	.	.
16GG/L	.	3	.	.	.	.	.
16BB-/	16ryy	1	.	.	.	.	.
16AA-/	8ryy	.	.	.	.	.	.
16GG/JJ	.	.	.	.	.	.	]]
*v	*v	*	*	*	*	*	*
*	*	*	*v	*v	*	*
!!LO:LB:g=original
=101	=101	=101	=101	=101	=101
*	*	*	*	*below	*
.	.	.	32qqeen/LLL	1	.
.	.	.	32qqccc/	3	.
!	!	!	!LO:TX:b:i:t=poco-a-poco-mo-ren-do-al-Fine-:dur=11w:ext=cd	!	!
!	!	!	!LO:TX:a:t=♭	!	!
.	.	.	32qqeeen/JJJ	5	.
*ped	*	*above	*8va	*	*
4.CC/	.	p	[2.ccccTT\	1324	.
4.A-\ [4.cn 4.d 4.f	.	.	.	.	.
=102	=102	=102	=102	=102	=102
*^	*	*	*	*	*
*Xped	*	*	*	*	*	*
!	!	!	!	!LO:TX:a:t=♭	!	!
2cn/]	4.G\ 4.e- 4.g	.	.	2.ccccTT\]	.	.
.	4.F:\ 4.dn: 4.a-:	.	.	.	.	.
4ryy	.	.	.	.	.	.
*v	*v	*	*	*	*	*
*	*	*	*X8va	*	*
=103||	=103||	=103||	=103||	=103||	=103||
*M2/4	*	*	*M2/4	*	*
*ped	*	*	*	*	*
!	!	!	!LO:TX:a:t=♭	!	!
4c\ 4en 4g	.	.	[2cccTT\	1234	.
4AA-/ [4C 4Dn 4F	.	.	.	.	.
=104	=104	=104	=104	=104	=104
*^	*	*	*	*	*
*	*^	*	*	*	*	*
*Xped	*	*	*above	*	*	*	*
!	!	!	!	!	!LO:TX:a:t=♭	!	!
2Cn\]	4GG/ 4E-	4G/	.	.	2cccTT\]	.	.
.	8FF\ 8Dn	8B-/L	1	.	.	.	.
.	8ryy	8A-/J	1	.	.	.	.
*v	*v	*v	*	*	*	*	*
=105	=105	=105	=105	=105	=105
*ped	*	*	*	*	*
2C\ 2En 2G	.	.	[2ggtt\	1324	pp
=106	=106	=106	=106	=106	=106
16qqBBB-/LL	.	.	.	.	.
16qqBB-/JJ	.	.	.	.	.
*Xped	*	*	*	*	*
2G\ 2d-X 2f	.	.	2ggtt\]	.	.
=107	=107	=107	=107	=107	=107
*ped	*	*	*	*	*
16qqCC/LL	.	.	.	.	.
16qqC/JJ	.	.	.	.	.
2G\ 2c 2en	.	.	[2gt/	1234	.
!!LO:LB:g=original
=108	=108	=108	=108	=108	=108
16qqBBB-/LL	.	.	.	.	.
16qqBB-/JJ	.	.	.	.	.
*Xped	*	*	*	*above	*
2G\ 2d-X 2f	.	.	4g/]	.	.
!	!	!	!LO:TX:b:i:t=rit.	!	!
.	.	.	32f#X/LLL	2	.
.	.	.	32g/	1	.
.	.	.	32a-/	4	.
.	.	.	32g/J	3	.
*	*	*	*tuplet	*	*
!	!	!	!LO:TUP:a:problem:klamra łukowa i cyfra	!	!
.	.	.	24b-/	5	.
.	.	.	24.a-/	4	.
.	.	.	48g/JJk	.	.
=109	=109	=109	=109	=109	=109
*ped	*	*	*	*	*
(8CC/L	.	.	4g/	.	ppp
(16GG/L	.	.	.	.	.
(16C/JJ	.	.	.	.	.
*	*	*	*	*below	*
(<4CC/) (<4GG) (<4C)	.	.	16G/LL	1	.
.	.	.	16c/	.	.
.	.	.	16f/	5	.
.	.	.	16d#X/JJ	3	.
=110	=110	=110	=110	=110	=110
*	*	*	*	*above	*
(<2CC/) (<2GG) (<2C)	.	.	16en\LL	4	.
.	.	.	16g\	1	.
.	.	.	16cc\	.	.
.	.	.	16een\JJ	4	.
.	.	.	16gg\LL	1	.
.	.	.	16ccc\	.	.
.	.	.	16eeen\	4	.
.	.	.	16ggg\JJ	1	.
=111	=111	=111	=111	=111	=111
*	*below	*	*8va	*	*
4CC/) 4GG) 4C)	.	.	4gggg\	5	.
[4GGG/	53	.	4r	.	.
*	*	*	*X8va	*	*
=112	=112	=112	=112	=112	=112
*Xped	*	*	*	*	*
2GGG/]	.	.	4G/	2	.
.	.	.	4en/	.	.
=113	=113	=113	=113	=113	=113
*ped	*	*	*	*	*
16qqEEE-/LL	5	.	.	.	.
16qqCC/JJ	.	1	.	.	.
2GG;<\ 2C 2En	1 2	.	2G<;:/ 2c: 2en:	.	.
*Xped	*	*	*	*	*
==	==	==	==	==	==
*-	*-	*-	*-	*-	*-
!!!RDF**kern: > = above
!!!RDF**kern: < = below
!!!system-decoration: {(s1,s2)}
!!!ENC: Marta Opryszak
!!!END: 2022-07-20
!!!ENC: Urszula Świątek
!!!END: 2022-08-20
!!!YEC: Copyright 2022 Narodowy Instytut Fryderyka Chopina (https://polishscores.org)
!!!YEM: License CC-BY-4.0 (https://creativecommons.org/licenses/by/4.0)
